src/svg/uf156-inr,rupee.svg

<!-- Generated by IcoMoon.io -->
<svg version="1.1" xmlns="http://www.w3.org/2000/svg" width="16" height="32" viewBox="0 0 16 32">
<path d="M16.036 8.393v1.821c0 0.321-0.25 0.571-0.571 0.571h-3c-0.554 3.429-3.179 5.661-7.232 6.143 2.661 2.839 5.5 6.268 8.196 9.571 0.143 0.161 0.179 0.411 0.071 0.607-0.089 0.196-0.286 0.321-0.518 0.321h-3.482c-0.179 0-0.339-0.071-0.446-0.214-2.875-3.446-5.518-6.607-8.893-10.196-0.107-0.107-0.161-0.25-0.161-0.393v-2.268c0-0.304 0.25-0.571 0.571-0.571h2c3.143 0 5.107-1.054 5.625-3h-7.625c-0.321 0-0.571-0.25-0.571-0.571v-1.821c0-0.321 0.25-0.571 0.571-0.571h7.375c-0.679-1.339-2.286-2.018-4.786-2.018h-2.589c-0.321 0-0.571-0.268-0.571-0.571v-2.375c0-0.321 0.25-0.571 0.571-0.571h14.857c0.321 0 0.571 0.25 0.571 0.571v1.821c0 0.321-0.25 0.571-0.571 0.571h-4.161c0.571 0.732 0.946 1.589 1.143 2.571h3.054c0.321 0 0.571 0.25 0.571 0.571z"></path>
</svg>

<svg xmlns="http://www.w3.org/2000/svg" width="16" height="32"><path d="M16.036 8.393v1.821c0 .321-.25.571-.571.571h-3c-.554 3.429-3.179 5.661-7.232 6.143 2.661 2.839 5.5 6.268 8.196 9.571a.539.539 0 0 1 .071.607.557.557 0 0 1-.518.321H9.5a.54.54 0 0 1-.446-.214C6.179 23.767 3.536 20.606.161 17.017A.555.555 0 0 1 0 16.624v-2.268c0-.304.25-.571.571-.571h2c3.143 0 5.107-1.054 5.625-3H.571A.564.564 0 0 1 0 10.214V8.393c0-.321.25-.571.571-.571h7.375C7.267 6.483 5.66 5.804 3.16 5.804H.571A.575.575 0 0 1 0 5.233V2.858c0-.321.25-.571.571-.571h14.857c.321 0 .571.25.571.571v1.821c0 .321-.25.571-.571.571h-4.161c.571.732.946 1.589 1.143 2.571h3.054c.321 0 .571.25.571.571z"/></svg>
